64x64/apps/half-life-opposing-force.svg

<svg width="64" height="64" version="1.1" xmlns="http://www.w3.org/2000/svg">
 <g transform="translate(4e-4)">
  <path d="m4.0507997 32.000415c-0.012 0.333995-0.050799 0.66199-0.050799 0.999985-3e-7 15.43178 12.56842 27.9996 27.999599 27.9996 15.431779 0 27.9996-12.56782 27.9996-27.9996 0-0.337995-0.038-0.66599-0.05-0.999985-0.533992 14.967786-12.855816 26.999614-27.9496 26.999614-15.093984 0-27.415608-12.031828-27.9496-26.999614z" style="opacity:.2"/>
  <path d="m31.9996 4.0008294c-15.431779 0-27.9996 12.568421-27.9996 27.9996 0 15.431779 12.568421 27.9996 27.9996 27.9996 15.431779 0 27.9996-12.567821 27.9996-27.9996 0-15.431179-12.567821-27.9996-27.9996-27.9996z" style="fill:#5aa331"/>
  <path d="m32 13a19.999714 19.999714 0 0 0-20 20 19.999714 19.999714 0 0 0 20 20 19.999714 19.999714 0 0 0 20-20 19.999714 19.999714 0 0 0-20-20zm-8 6h6.644531l8.935547 21.810547 4.671875-1.876953 1.490235 3.71289-8.351563 3.353516v-2e-3l-0.005859 2e-3 -5.837891-14.232422-10.210937 15.232422-3.335938-2.007812 11.712891-17.699219-1.761719-4.292969h-3.951172z" style="opacity:.2"/>
  <path d="m32 12a19.999714 19.999714 0 0 0-20 20 19.999714 19.999714 0 0 0 20 20 19.999714 19.999714 0 0 0 20-20 19.999714 19.999714 0 0 0-20-20zm-8 6h6.644531l8.935547 21.810547 4.671875-1.876953 1.490235 3.71289-8.351563 3.353516v-2e-3l-0.005859 2e-3 -5.837891-14.232422-10.210937 15.232422-3.335938-2.007812 11.712891-17.699219-1.761719-4.292969h-3.951172z" style="fill:#f4f4f7"/>
  <path d="m31.9996 4.0008294c-15.431779 0-27.9996 12.568421-27.9996 27.9996 0 0.337995 0.038799 0.66599 0.050799 0.999986 0.5327927-14.966786 12.854417-26.999614 27.949601-26.999614 15.093784 0 27.415608 12.032628 27.9496 26.999614 0.012-0.333996 0.05-0.661991 0.05-0.999986 0-15.431179-12.567821-27.9996-27.9996-27.9996z" style="fill:#f4f4f7;opacity:.2"/>
 </g>
</svg>

<svg width="64" height="64" xmlns="http://www.w3.org/2000/svg"><path d="M4.05 32c-.011.334-.05.662-.05 1 0 15.432 12.568 28 28 28 15.431 0 28-12.568 28-28 0-.338-.039-.666-.05-1C59.414 46.968 47.092 59 32 59 16.906 59 4.584 46.968 4.05 32z" style="opacity:.2"/><path d="M32 4C16.568 4 4 16.57 4 32c0 15.432 12.568 28 28 28 15.431 0 28-12.568 28-28C60 16.57 47.43 4 32 4z" style="fill:#5aa331"/><path d="M32 13a20 20 0 0 0-20 20 20 20 0 0 0 20 20 20 20 0 0 0 20-20 20 20 0 0 0-20-20zm-8 6h6.645l8.935 21.81 4.672-1.876 1.49 3.712L37.391 46v-.002l-.006.002-5.838-14.232L21.336 47 18 44.992l11.713-17.699L27.95 23H24z" style="opacity:.2"/><path d="M32 12a20 20 0 0 0-20 20 20 20 0 0 0 20 20 20 20 0 0 0 20-20 20 20 0 0 0-20-20zm-8 6h6.645l8.935 21.81 4.672-1.876 1.49 3.712L37.391 45v-.002l-.006.002-5.838-14.232L21.336 46 18 43.992l11.713-17.699L27.95 22H24z" style="fill:#f4f4f7"/><path d="M32 4C16.568 4 4 16.57 4 32c0 .338.039.666.05 1C4.585 18.034 16.906 6 32 6c15.094 0 27.416 12.033 27.95 27 .012-.334.05-.662.05-1C60 16.57 47.432 4 32 4z" style="fill:#f4f4f7;opacity:.2"/></svg>
